dist/img/svg/cart.svg

<svg viewBox="0 0 20 19" xmlns="http://www.w3.org/2000/svg">
<path d="M20 6.57893H16.6038L13.0359 0.319309C12.8589 0.0083658 12.475 -0.093156 12.1784 0.0938088C11.8823 0.280773 11.7865 0.684867 11.9641 0.996475L15.1461 6.57893H4.85388L8.03587 0.996431C8.21348 0.684823 8.11767 0.280729 7.82164 0.0937645C7.52439 -0.0932003 7.14173 0.00832153 6.96411 0.319265L3.39617 6.57888H0V7.89468H1.35651L2.94432 16.8103C3.11033 17.7438 3.88547 18.421 4.78761 18.421H15.2124C16.1145 18.421 16.8896 17.7438 17.055 16.811L18.6434 7.89468H20C20 7.89468 20 6.57893 20 6.57893ZM15.8264 16.5688C15.7715 16.8797 15.5133 17.1053 15.2124 17.1053H4.78761C4.4867 17.1053 4.22854 16.8798 4.173 16.5681L2.62789 7.89468H17.3721L15.8264 16.5688Z"/>
</svg>

<svg viewBox="0 0 20 19" xmlns="http://www.w3.org/2000/svg"><path d="M20 6.579h-3.396L13.036.319a.608.608 0 00-.858-.225.678.678 0 00-.214.902l3.182 5.583H4.854L8.036.996a.678.678 0 00-.214-.902.608.608 0 00-.858.225L3.396 6.58H0v1.316h1.357l1.587 8.915c.166.934.941 1.611 1.844 1.611h10.424c.902 0 1.678-.677 1.843-1.61l1.588-8.916H20V6.579zm-4.174 9.99a.634.634 0 01-.614.536H4.788a.634.634 0 01-.615-.537L2.628 7.895h14.744l-1.546 8.674z"/></svg>
